modules/hawcons-filled/icons/icon-121-combination-lock.svg

<?xml version="1.0" encoding="UTF-8" standalone="no"?>
<svg width="32px" height="32px" viewBox="0 0 32 32" version="1.1" xmlns="http://www.w3.org/2000/svg" xmlns:xlink="http://www.w3.org/1999/xlink" xmlns:sketch="http://www.bohemiancoding.com/sketch/ns">
    <!-- Generator: Sketch 3.0.3 (7891) - http://www.bohemiancoding.com/sketch -->
    <title>icon 121 combination lock</title>
    <desc>Created with Sketch.</desc>
    <defs></defs>
    <g id="Page-1" stroke="none" stroke-width="1" fill="none" fill-rule="evenodd" sketch:type="MSPage">
        <g id="icon-121-combination-lock" sketch:type="MSArtboardGroup" fill="#929292">
            <path d="M26.9999856,27 C26.994909,28.6684146 25.6497804,30 23.991212,30 L9.00878799,30 C7.34559019,30 6,28.652611 6,26.9905224 L6,17.0094776 C6,15.339581 7.34233349,14.0047152 9,14.0000125 L9,14.0000125 L9,10.499235 C9,6.35670485 12.3578644,3 16.5,3 C20.6337072,3 24,6.35752188 24,10.499235 L24,14.0000125 C25.6559868,14.0047398 26.9948908,15.3451962 26.9999854,17 L26.9999864,17 L17,17 L17,18 L27,18 L27,20 L17,20 L17,21 L27,21 L27,21 L27,23 L27,23 L17,23 L17,24 L27,24 L27,26 L17,26 L17,27 L26.9999866,27 L26.9999856,27 Z M12,14 L12,10.5008537 C12,8.0092478 14.0147186,6 16.5,6 C18.9802243,6 21,8.01510082 21,10.5008537 L21,14 L12,14 L12,14 L12,14 Z" id="combination-lock" sketch:type="MSShapeGroup"></path>
        </g>
    </g>
</svg>

<svg width="32" height="32" viewBox="0 0 32 32" xmlns="http://www.w3.org/2000/svg"><path d="M27 27a3.002 3.002 0 0 1-3.009 3H9.01A3.008 3.008 0 0 1 6 26.99v-9.98A3.002 3.002 0 0 1 9 14v-3.5a7.5 7.5 0 1 1 15 0V14a3.008 3.008 0 0 1 3 3H17v1h10v2H17v1h10v2H17v1h10v2H17v1h10zM12 14v-3.5C12 8.01 14.015 6 16.5 6c2.48 0 4.5 2.015 4.5 4.5V14h-9z" fill="#929292" fill-rule="evenodd"/></svg>
